components/Common/Svg/svgs/cjm.svg

<svg
  width="90"
  height="90"
  viewBox="0 0 90 90"
  fill="none"
  xmlns="http://www.w3.org/2000/svg"
>
  <circle
    opacity="0.5"
    cx="45"
    cy="45"
    r="45"
    fill="#FFE603"
  ></circle>
  <path
    d="M31 52.2699C31 51.7176 30.5523 51.2699 30 51.2699C29.4477 51.2699 29 51.7176 29 52.2699H31ZM29 52.2699C29 52.8222 29.4477 53.2699 30 53.2699C30.5523 53.2699 31 52.8222 31 52.2699H29ZM60.1667 38.5199C60.1667 37.9676 59.719 37.5199 59.1667 37.5199C58.6144 37.5199 58.1667 37.9676 58.1667 38.5199H60.1667ZM58.1667 38.5199C58.1667 39.0722 58.6144 39.5199 59.1667 39.5199C59.719 39.5199 60.1667 39.0722 60.1667 38.5199H58.1667ZM44.0208 32.6667C44.5731 32.6667 45.0208 32.219 45.0208 31.6667C45.0208 31.1145 44.5731 30.6667 44.0208 30.6667V32.6667ZM49.5493 30.6667C48.997 30.6667 48.5493 31.1145 48.5493 31.6667C48.5493 32.219 48.997 32.6667 49.5493 32.6667V30.6667ZM54.5538 33.1105C55.0639 33.3221 55.649 33.08 55.8605 32.5698C56.0721 32.0597 55.83 31.4746 55.3199 31.263L54.5538 33.1105ZM59.5704 35.5136C59.3588 35.0034 58.7738 34.7613 58.2636 34.9729C57.7534 35.1844 57.5114 35.7695 57.7229 36.2797L59.5704 35.5136ZM57.7229 40.7602C57.5114 41.2703 57.7534 41.8554 58.2636 42.067C58.7737 42.2785 59.3588 42.0364 59.5704 41.5263L57.7229 40.7602ZM55.3199 45.7768C55.83 45.5652 56.0721 44.9802 55.8605 44.47C55.649 43.9599 55.0639 43.7178 54.5537 43.9293L55.3199 45.7768ZM48.4593 44.3731C47.907 44.3731 47.4593 44.8208 47.4593 45.3731C47.4593 45.9254 47.907 46.3731 48.4593 46.3731V44.3731ZM40.751 46.3731C41.3033 46.3731 41.751 45.9254 41.751 45.3731C41.751 44.8208 41.3033 44.3731 40.751 44.3731V46.3731ZM33.8737 44.9727C33.3636 45.1843 33.1215 45.7693 33.3331 46.2795C33.5446 46.7896 34.1297 47.0317 34.6399 46.8202L33.8737 44.9727ZM31.4471 50.013C31.6586 49.5028 31.4165 48.9177 30.9064 48.7062C30.3962 48.4946 29.8112 48.7367 29.5996 49.2468L31.4471 50.013ZM29.5996 55.293C29.8112 55.8032 30.3962 56.0452 30.9064 55.8337C31.4165 55.6221 31.6586 55.037 31.4471 54.5269L29.5996 55.293ZM34.6399 57.7197C34.1297 57.5081 33.5446 57.7502 33.3331 58.2604C33.1215 58.7705 33.3636 59.3556 33.8738 59.5671L34.6399 57.7197ZM39.9619 60.1667C40.5142 60.1667 40.9619 59.719 40.9619 59.1667C40.9619 58.6145 40.5142 58.1667 39.9619 58.1667V60.1667ZM46.0921 58.1667C45.5398 58.1667 45.0921 58.6145 45.0921 59.1667C45.0921 59.719 45.5398 60.1667 46.0921 60.1667V58.1667ZM41.2566 32.6667H44.0208V30.6667H41.2566V32.6667ZM49.5493 32.6667H52.3135V30.6667H49.5493V32.6667ZM52.3135 32.6667C53.109 32.6667 53.865 32.8249 54.5538 33.1105L55.3199 31.263C54.3925 30.8785 53.3765 30.6667 52.3135 30.6667V32.6667ZM57.7229 36.2797C58.0085 36.9684 58.1667 37.7244 58.1667 38.5199H60.1667C60.1667 37.4569 59.9549 36.4409 59.5704 35.5136L57.7229 36.2797ZM58.1667 38.5199C58.1667 39.3154 58.0085 40.0714 57.7229 40.7602L59.5704 41.5263C59.9549 40.599 60.1667 39.5829 60.1667 38.5199H58.1667ZM54.5537 43.9293C53.865 44.215 53.109 44.3731 52.3135 44.3731V46.3731C53.3765 46.3731 54.3925 46.1614 55.3199 45.7768L54.5537 43.9293ZM52.3135 44.3731H48.4593V46.3731H52.3135V44.3731ZM40.751 44.3731H36.8968V46.3731H40.751V44.3731ZM36.8968 44.3731C35.8279 44.3731 34.8062 44.586 33.8737 44.9727L34.6399 46.8202C35.3337 46.5324 36.0954 46.3731 36.8968 46.3731V44.3731ZM29.5996 49.2468C29.2129 50.1793 29 51.201 29 52.2699H31C31 51.4685 31.1593 50.7069 31.4471 50.013L29.5996 49.2468ZM29 52.2699C29 53.3388 29.2129 54.3605 29.5996 55.293L31.4471 54.5269C31.1593 53.833 31 53.0713 31 52.2699H29ZM33.8738 59.5671C34.8062 59.9538 35.8279 60.1667 36.8968 60.1667V58.1667C36.0954 58.1667 35.3338 58.0074 34.6399 57.7197L33.8738 59.5671ZM36.8968 60.1667H39.9619V58.1667H36.8968V60.1667ZM46.0921 60.1667H49.1572V58.1667H46.0921V60.1667Z"
    fill="#161616"
  ></path>
  <path
    d="M31.4308 39.9998C36.1647 39.9998 40.0022 36.1622 40.0022 31.4284C40.0022 26.6945 36.1647 22.8569 31.4308 22.8569C26.6969 22.8569 22.8594 26.6945 22.8594 31.4284C22.8594 36.1622 26.6969 39.9998 31.4308 39.9998Z"
    fill="#FFF281"
    stroke="#161616"
    stroke-width="2"
    stroke-miterlimit="10"
  ></path>
  <path
    d="M31.4308 34.2859C33.4032 34.2859 35.0022 32.6869 35.0022 30.7145C35.0022 28.742 33.4032 27.1431 31.4308 27.1431C29.4584 27.1431 27.8594 28.742 27.8594 30.7145C27.8594 32.6869 29.4584 34.2859 31.4308 34.2859Z"
    fill="#FFF281"
    stroke="#161616"
    stroke-width="2"
    stroke-miterlimit="10"
  ></path>
  <path
    d="M25.6953 37.8012C26.2334 36.7433 27.0536 35.855 28.0653 35.2345C29.077 34.6141 30.2407 34.2856 31.4275 34.2856C32.6143 34.2856 33.778 34.6141 34.7897 35.2345C35.8014 35.855 36.6217 36.7433 37.1598 37.8012"
    stroke="#161616"
    stroke-width="2"
    stroke-linecap="round"
    stroke-linejoin="round"
  ></path>
  <path
    d="M58.9308 67.4998C63.6647 67.4998 67.5022 63.6622 67.5022 58.9284C67.5022 54.1945 63.6647 50.3569 58.9308 50.3569C54.1969 50.3569 50.3594 54.1945 50.3594 58.9284C50.3594 63.6622 54.1969 67.4998 58.9308 67.4998Z"
    fill="#FFF281"
    stroke="#161616"
    stroke-width="2"
    stroke-linecap="round"
    stroke-linejoin="round"
  ></path>
  <path
    d="M62.8571 56.7856L57.619 61.7856L55 59.2856"
    stroke="#161616"
    stroke-width="2"
    stroke-linecap="round"
    stroke-linejoin="round"
  ></path>
</svg>

<svg width="90" height="90" viewBox="0 0 90 90" fill="none" xmlns="http://www.w3.org/2000/svg"><circle opacity=".5" cx="45" cy="45" r="45" fill="#FFE603"/><path d="M31 52.27a1 1 0 1 0-2 0h2Zm-2 0a1 1 0 1 0 2 0h-2Zm31.167-13.75a1 1 0 1 0-2 0h2Zm-2 0a1 1 0 1 0 2 0h-2ZM44.02 32.667a1 1 0 1 0 0-2v2Zm5.528-2a1 1 0 0 0 0 2v-2Zm5.005 2.444a1 1 0 1 0 .766-1.848l-.766 1.848Zm5.016 2.403a1 1 0 1 0-1.847.766l1.847-.766Zm-1.847 5.246a1 1 0 0 0 1.847.766l-1.847-.766Zm-2.403 5.017a1 1 0 0 0-.766-1.848l.766 1.848Zm-6.86-1.404a1 1 0 1 0 0 2v-2Zm-7.709 2a1 1 0 1 0 0-2v2Zm-6.877-1.4a1 1 0 0 0 .766 1.847l-.766-1.847Zm-2.427 5.04a1 1 0 0 0-1.847-.766l1.847.766Zm-1.847 5.28a1 1 0 0 0 1.847-.766l-1.847.766Zm5.04 2.427a1 1 0 1 0-.766 1.847l.766-1.847Zm5.322 2.447a1 1 0 1 0 0-2v2Zm6.13-2a1 1 0 0 0 0 2v-2Zm-4.835-25.5h2.764v-2h-2.764v2Zm8.292 0h2.764v-2H49.55v2Zm2.764 0c.796 0 1.552.158 2.24.444l.767-1.848a7.834 7.834 0 0 0-3.007-.596v2Zm5.41 3.613c.285.688.444 1.444.444 2.24h2a7.833 7.833 0 0 0-.597-3.006l-1.847.766Zm.444 2.24c0 .795-.159 1.551-.444 2.24l1.847.766a7.834 7.834 0 0 0 .597-3.006h-2Zm-3.613 5.41a5.83 5.83 0 0 1-2.24.443v2a7.832 7.832 0 0 0 3.006-.596l-.766-1.848Zm-2.24.443h-3.855v2h3.854v-2Zm-11.563 0h-3.854v2h3.854v-2Zm-3.854 0c-1.07 0-2.09.213-3.023.6l.766 1.847a5.875 5.875 0 0 1 2.257-.447v-2ZM29.6 49.247a7.876 7.876 0 0 0-.6 3.023h2c0-.802.16-1.563.447-2.257l-1.847-.766ZM29 52.27c0 1.069.213 2.09.6 3.023l1.847-.766A5.875 5.875 0 0 1 31 52.27h-2Zm4.874 7.297c.932.387 1.954.6 3.023.6v-2c-.802 0-1.563-.16-2.257-.447l-.766 1.847Zm3.023.6h3.065v-2h-3.065v2Zm9.195 0h3.065v-2h-3.065v2Z" fill="#161616"/><path d="M31.43 40a8.571 8.571 0 1 0 0-17.143 8.571 8.571 0 0 0 0 17.143Z" fill="#FFF281" stroke="#161616" stroke-width="2" stroke-miterlimit="10"/><path d="M31.43 34.286a3.571 3.571 0 1 0 0-7.143 3.571 3.571 0 0 0 0 7.143Z" fill="#FFF281" stroke="#161616" stroke-width="2" stroke-miterlimit="10"/><path d="M25.695 37.801a6.431 6.431 0 0 1 11.465 0" stroke="#161616" stroke-width="2" stroke-linecap="round" stroke-linejoin="round"/><path d="M58.93 67.5a8.571 8.571 0 1 0 0-17.143 8.571 8.571 0 0 0 0 17.143Z" fill="#FFF281" stroke="#161616" stroke-width="2" stroke-linecap="round" stroke-linejoin="round"/><path d="m62.857 56.786-5.238 5-2.619-2.5" stroke="#161616" stroke-width="2" stroke-linecap="round" stroke-linejoin="round"/></svg>
